packages/ffe-icons/icons/filled/md/communities.svg

<svg xmlns="http://www.w3.org/2000/svg" height="24" viewBox="0 -960 960 960" width="24"><path d="M360-330.001q29.154 0 49.576-20.423 20.423-20.422 20.423-49.576t-20.423-49.576Q389.154-469.999 360-469.999t-49.576 20.423Q290.001-429.154 290.001-400t20.423 49.576q20.422 20.423 49.576 20.423Zm240 0q29.154 0 49.576-20.423 20.423-20.422 20.423-49.576t-20.423-49.576Q629.154-469.999 600-469.999t-49.576 20.423Q530.001-429.154 530.001-400t20.423 49.576q20.422 20.423 49.576 20.423Zm-120-200q29.154 0 49.576-20.423 20.423-20.422 20.423-49.576t-20.423-49.576Q509.154-669.999 480-669.999t-49.576 20.423Q410.001-629.154 410.001-600t20.423 49.576q20.422 20.423 49.576 20.423Zm.067 430q-78.836 0-148.204-29.92-69.369-29.92-120.682-81.21-51.314-51.291-81.247-120.629-29.933-69.337-29.933-148.173t29.92-148.204q29.92-69.369 81.21-120.682 51.291-51.314 120.629-81.247 69.337-29.933 148.173-29.933t148.204 29.92q69.369 29.92 120.682 81.21 51.314 51.291 81.247 120.629 29.933 69.337 29.933 148.173t-29.92 148.204q-29.92 69.369-81.21 120.682-51.291 51.314-120.629 81.247-69.337 29.933-148.173 29.933Z"/></svg>

<svg xmlns="http://www.w3.org/2000/svg" height="24" viewBox="0 -960 960 960" width="24"><path d="M360-330q29.15 0 49.58-20.42Q430-370.85 430-400t-20.42-49.58Q389.15-470 360-470t-49.58 20.42Q290-429.15 290-400t20.42 49.58Q330.85-330 360-330Zm240 0q29.15 0 49.58-20.42Q670-370.85 670-400t-20.42-49.58Q629.15-470 600-470t-49.58 20.42Q530-429.15 530-400t20.42 49.58Q570.85-330 600-330ZM480-530q29.15 0 49.58-20.42Q550-570.85 550-600t-20.42-49.58Q509.15-670 480-670t-49.58 20.42Q410-629.15 410-600t20.42 49.58Q450.85-530 480-530Zm.07 430q-78.84 0-148.21-29.92t-120.68-81.21q-51.31-51.29-81.25-120.63Q100-401.1 100-479.93q0-78.84 29.92-148.21t81.21-120.68q51.29-51.31 120.63-81.25Q401.1-860 479.93-860q78.84 0 148.21 29.92t120.68 81.21q51.31 51.29 81.25 120.63Q860-558.9 860-480.07q0 78.84-29.92 148.21t-81.21 120.68q-51.29 51.31-120.63 81.25Q558.9-100 480.07-100Z"/></svg>
